assets/02_eyes/Eye 42.svg

<svg width="400" height="180" viewBox="0 0 400 180" fill="none" xmlns="http://www.w3.org/2000/svg">
<g clip-path="url(#clip0_70_1607)">
<path d="M371.438 79.0135C354.592 125.499 302.632 149.298 255.379 132.173C208.126 115.048 183.479 63.4851 200.326 17L371.438 79.0135Z" fill="white"/>
<path d="M285.883 48.0067C262.257 39.4445 236.276 51.3446 227.853 74.5865C219.43 97.8283 231.754 123.611 255.38 132.173C279.006 140.735 304.987 128.835 313.41 105.593C321.833 82.3514 309.509 56.569 285.883 48.0067Z" fill="#FFCF4B"/>
<path d="M255.028 56.9389C255.028 56.9389 271.714 89.37 303.124 74.967C271.695 89.3628 286.445 122.664 286.445 122.664C272.778 94.0716 240.488 103.64 240.488 103.64C240.488 103.64 268.683 85.5046 255.015 56.9121L255.028 56.9389Z" fill="white"/>
</g>
<g clip-path="url(#clip1_70_1607)">
<path d="M31.1861 79.0741L31.0003 78.5636L200.145 17L200.338 17.5301C216.916 63.9956 192.818 115.215 146.281 132.153C99.7448 149.091 48.3148 125.339 31.1861 79.0741Z" fill="white"/>
<path d="M55.9101 69.4968L175.213 26.0742C187.176 58.9431 170.179 95.3259 137.239 107.315C104.3 119.304 67.8734 102.366 55.9101 69.4968Z" fill="#1F69AF"/>
<path d="M88.9681 57.4648L142.175 38.099C147.506 52.7467 139.925 68.9587 125.246 74.3015C110.567 79.6443 94.3191 72.1053 88.9878 57.4576L88.9681 57.4648Z" fill="white"/>
</g>
<defs>
<clipPath id="clip0_70_1607">
<rect width="182.003" height="89.5231" fill="white" transform="translate(340.936 163.18) rotate(-160.079)"/>
</clipPath>
<clipPath id="clip1_70_1607">
<rect width="180" height="90" fill="white" transform="translate(230.926 101.572) rotate(160)"/>
</clipPath>
</defs>
</svg>

<svg xmlns="http://www.w3.org/2000/svg" width="400" height="180" fill="none" viewBox="0 0 400 180"><g clip-path="url(#Eye_42_svg_clip0_70_1607)"><path fill="#fff" d="M371.438 79.014c-16.846 46.485-68.806 70.284-116.059 53.159S183.479 63.485 200.326 17z"/><path fill="#ffcf4b" d="M285.883 48.007c-23.626-8.562-49.607 3.338-58.03 26.58s3.901 49.024 27.527 57.586 49.607-3.338 58.03-26.58-3.901-49.024-27.527-57.586"/><path fill="#fff" d="M255.028 56.939s16.686 32.431 48.096 18.028c-31.429 14.396-16.679 47.697-16.679 47.697-13.667-28.592-45.957-19.024-45.957-19.024s28.195-18.135 14.527-46.728z"/></g><g clip-path="url(#Eye_42_svg_clip1_70_1607)"><path fill="#fff" d="m31.186 79.074-.186-.51L200.145 17l.193.53c16.578 46.466-7.52 97.685-54.057 114.623-46.536 16.938-97.966-6.814-115.095-53.079"/><path fill="#1f69af" d="m55.91 69.497 119.303-43.423c11.963 32.87-5.034 69.252-37.974 81.241s-69.366-4.949-81.329-37.818"/><path fill="#fff" d="m88.968 57.465 53.207-19.366c5.331 14.648-2.25 30.86-16.929 36.203-14.679 5.342-30.927-2.197-36.258-16.844z"/></g><defs><clipPath id="Eye_42_svg_clip0_70_1607"><rect width="182.003" height="89.523" fill="#fff" transform="rotate(199.921 184.797 51.653)"/></clipPath><clipPath id="Eye_42_svg_clip1_70_1607"><rect width="180" height="90" fill="#fff" transform="rotate(160 106.508 71.145)"/></clipPath></defs></svg>
